!!!COM: Scriabin, Alexander
!!!OTL: Etude
!!!OPR: 12 Etudes
!!!OPS: 8
!!!ONM: 10
!!!ODT: 1894
!!!AGN: Etude
**kern	**kern
*staff2	*staff1
*clefF4	*clefG2
*k[b-e-a-d-g-]	*k[b-e-a-d-g-]
*D-:	*D-:
*M3/8	*M3/8
=1	=1
16A-LL	16cLL 16en
16D-	16d- 16f
16c-X	16dn 16g-
16D-X	16e-X 16gn
16AA-	16en 16a-
16DD-JJ	16fJJ 16dd-X
=2	=2
16d-LL	16fLL 16an
16D-	16g- 16b-
16d-	16gn 16cc-X
16G-X	16a-X 16ccn
16GG-	16an 16dd-
16DD-JJ	16b-JJ 16gg-X
=3	=3
16e-LL	16gnLL 16bn
16A-	16a- 16cc
16g-X	16an 16dd-
16A-X	16b-X 16ddn
16AA-	16bn 16ee-
16DD-JJ	16ccnJJ 16aa-X
=4	=4
40%3AA-LL	16gg-LL 16bb-
.	16ff 16bb--
40%3D-	.
.	16ff-X 16aa-
40%3A-	.
.	16ee- 16ggn
40%3d-	.
.	16ee-- 16gg-X
40%3a-JJ	.
.	16dd-JJ 16ffn
=5	=5
16a-LL	16ccLL 16een
16c-X	16dd- 16ff
16D-X	16ddn 16gg-
16c-	16ee-X 16ggn
16AA-	16een 16aa-
16DD-JJ	16ffJJ 16ddd-X
=6	=6
16dd-LL	16ffLL 16aan
16B-	16gg- 16bb-
16g-X	16ggn 16ccc-X
16G-	16aa-X 16cccn
16D-	16aan 16ddd-
16DD-JJ	16bb-JJ 16ggg-X
*clefG2	*
=7	=7
16ee-LL	16ggnLL 16bbn
16g-X	16aa- 16ccc
*clefF4	*
16A-X	16aan 16ddd-
16c	16bb-X 16dddn
16AA-	16bbn 16eee-
16DD-JJ	16cccnJJ 16aaa-X
=8	=8
16AA-LL	16ggg-LL 16bbb-
16F	16fff 16bbb--
*clefG2	*
16d-	16fff-X 16aaa-
16a-	16eee- 16gggn
16dd-	16eee-- 16ggg-X
16aa-JJ	16ddd-JJ 16fffn
*clefF4	*
=9	=9
16DD-LL	16ccLL 16een
16D-	16dd- 16ff
16B-	16gg- 16bb-
16F	16dd- 16ff
16b-	16gg- 16bb-
16B-JJ	16dd-JJ 16ff
=10	=10
16EE-LL	16ddd-LL 16fff
16E-	16ccc-X 16eee-
16c-X	16bb- 16dddn
16G-	16ccc-J 16eee-
16g-	8cc-XJ 8ee-
16FFJJ	.
=11	=11
16FLL	16anLL 16dd-
16f	16cc-X 16ee-
16e-	16ff 16aan
16F	16a 16dd-
16AnJJ	16ff 16aa
16r	16aaJJ 16ddd-
=12	=12
16GG-LL	16aa-XLL 16ccc
16D-	16gg- 16bb-
16B-	16ff 16aan
16D-	16gg-J 16bb-
16d-	8g-J 8b-
16GGnJJ	.
=13	=13
16d-LL	16b--LL 16dd-
16F	16a- 16cc
16GGn	16b-- 16dd-
16d-	16dd- 16ff
16B--	16cc 16een
16D-JJ	16dd-JJ 16ff
=14	=14
16b--LL	16ccLL 16een
16d-	16dd- 16ff
16F	16ff 16bb--
16d-	16ee 16aa-
16GGn	16ff 16bb--
16AA-JJ	16gg-XJJ 16bb-X
=15	=15
16G-XLL	16ffLL 16bb--
16c	16een 16aa-
16A-	16ccc 16eeen
16g-	16ee 16aa-
16cc	16ccc 16eee
16AA-JJ	16gg-XJJ 16bb--
=16	=16
16G-LL	16ffLL 16bb--
16cJJ	16een 16aa-
8r	16a- 16cc
.	16c 16en
8r	16a- 16cc
.	16cJJ 16e
=17	=17
16A-LL	16cLL 16en
16D-	16d- 16f
16c-X	16dn 16g-
16D-X	16e-X 16gn
16AA-	16en 16a-
16DD-JJ	16fJJ 16dd-X
=18	=18
16d-LL	16fLL 16an
16D-	16g- 16b-
16d-	16gn 16cc-X
16G-X	16a-X 16ccn
16GG-	16an 16dd-
16DD-JJ	16b-JJ 16gg-X
=19	=19
16e-LL	16gnLL 16bn
16A-	16a- 16cc
16g-X	16an 16dd-
16A-X	16b-X 16ddn
16AA-	16bn 16ee-
16DD-JJ	16ccnJJ 16aa-X
=20	=20
40%3AA-LL	16gg-LL 16bb-
.	16ff 16bb--
40%3D-	.
.	16ff-X 16aa-
40%3A-	.
.	16ee- 16ggn
40%3d-	.
.	16ee-- 16gg-X
40%3a-JJ	.
.	16dd-JJ 16ffn
=21	=21
16a-LL	16ccLL 16een
16c-X	16dd- 16ff
16D-X	16ddn 16gg-
16c-	16ee-X 16ggn
16AA-	16een 16aa-
16DD-JJ	16ffJJ 16ddd-X
=22	=22
16dd-LL	16ffLL 16aan
16B-	16gg- 16bb-
16g-X	16ggn 16ccc-X
16G-	16aa-X 16cccn
16D-	16aan 16ddd-
16DD-JJ	16bb-JJ 16ggg-X
*clefG2	*
=23	=23
16ee-LL	16ggnLL 16bbn
16g-X	16aa- 16ccc
*clefF4	*
16A-X	16aan 16ddd-
16c	16bb-X 16dddn
16AA-	16bbn 16eee-
16DD-JJ	16cccnJJ 16aaa-X
=24	=24
16AA-LL	16ggg-LL 16bbb-
16F	16fff 16bbb--
*clefG2	*
16d-	16fff-X 16aaa-
16a-	16eee- 16gggn
16dd-	16eee-- 16ggg-X
16aa-JJ	16ddd-JJ 16fffn
*clefF4	*
=25	=25
16AAA-LL	16gnLL 16bn
16AA-	16a- 16cc
16F	16dd- 16ff
16C	16a- 16cc
16f	16dd- 16ff
16FJJ	16a-JJ 16cc
=26	=26
16BBB-LL	16aa-LL 16ccc
16BB-	16gg- 16bb-
16G-	16ff 16aan
16D-	16gg- 16bb-
16d-	16g-JJ 16b-
16CCJJ	16r
=27	=27
16CLL	16enLL 16a-
16c	16g- 16b-
16B-	16cc 16een
16C	16e 16a-
16EnJJ	16cc 16ee
16r	16eeJJ 16aa-
=28	=28
16DD-LL	16ee-XLL 16ggn
16AA-	16dd- 16ff
16F	16cc 16een
16AA-	16dd- 16ff
16A-	16d-JJ 16f
16DDnJJ	16r
=29	=29
16A-LL	16f-XLL 16a-
16C	16e- 16gn
16DDn	16f- 16a-
16A-	16a- 16cc
16F-X	16g 16bn
16AA-JJ	16a-JJ
=30	=30
16cLL	16gnLL 16bn
16A-	16a- 16cc
16Dn	16cc 16ff-X
16c	16b 16ee-
16a-	16cc 16ff-
16EE-JJ	16dd-JJ 16ffn
=31	=31
16E-LL	16ccLL 16ff-X
16E-	16bn 16ee-
16d-	16ggn 16bbn
16gn	16b 16ee-
16d-	16gg 16bb
16E-JJ	16ee-JJ 16gg
=32	=32
16AA-LL	16dd-LL 16ff
16F-X	16cc 16ff-X
16c	16aa- 16ccc
16A-	16cc 16ff-
16f-X	16aa- 16ccc
16e-JJ	16a-JJ 16cc
=33	=33
16FFLL	16a-LL 16cc
16F	16gn 16bn
16C	16a- 16cc
16c	16e- 16g
16F	16a- 16cc
16CJJ	16e-JJ 16g
=34	=34
40%3FLL	16d-LL 16f
.	16c 16en
40%3D-	.
.	16d- 16f
40%3FF	.
.	16a- 16cc
40%3D-	.
.	16d- 16f
40%3BnJJ	.
.	16gnJJ 16bn
=35	=35
16FFLL	16a-LL 16cc
16F	16gn 16bn
16C	16a- 16cc
16c	16e- 16g
16F	16a- 16cc
16CJJ	16e-JJ 16g
=36	=36
40%3FLL	16d-LL 16f
.	16c 16en
40%3D-	.
.	16d- 16f
40%3FF	.
.	16a- 16cc
40%3D-	.
.	16d- 16f
40%3BnJJ	.
.	16gnJJ 16bn
=37	=37
16FFFLL 16FF	16g-XLL 16b-X
16D-	16d- 16f
16GG-	16g- 16b-
16DD-	16d-JJ 16f
16G-	8g- 8b-
16GG-JJ	.
=38	=38
16FFFLL 16FF	16g-LL 16b-
16C	16c 16en
16GG-	16g- 16b-
16CC	16cJJ 16e
16G-	8g- 8b-
16GG-JJ	.
=39	=39
16FFFLL 16FF	16fLL 16an
16C	16c 16en
16FF	16f 16a
16CC	16cJJ 16e
16F	8f 8a
16FFJJ	.
=40	=40
16FFLL	16anLL 16dd-
16E-	16d- 16f
16An	16a 16dd-
16FJJ	16d-JJ 16f
8f	8a 8dd-
=41	=41
16BB-LL	16dd-LL 16ff
16B-	16cc 16een
16F	16dd- 16ff
16f	16a- 16cc
16B-	16dd- 16ff
16FJJ	16a-JJ 16cc
=42	=42
40%3B-LL	16g-LL 16b-
.	16f 16an
40%3G-	.
.	16g- 16b-
40%3BB-	.
.	16dd- 16ff
40%3G-	.
.	16g- 16b-
40%3enJJ	.
.	16ccJJ 16een
=43	=43
16BB-LL	16dd-LL 16ff
16B-	16cc 16een
16F	16dd- 16ff
16f	16a- 16cc
16B-	16dd- 16ff
16FJJ	16a-JJ 16cc
=44	=44
40%3B-LL	16g-LL 16b-
.	16f 16an
40%3G-	.
.	16g- 16b-
40%3BB-	.
.	16dd- 16ff
40%3G-	.
.	16g- 16b-
40%3enJJ	.
.	16ccJJ 16een
=45	=45
16BBB-LL 16BB-	16cc-XLL 16ee-X
16G-	16g- 16b-
16C-X	16cc- 16ee-
16GG-	16g-JJ 16b-
16c-X	8cc- 8ee-
16C-JJ	.
=46	=46
16BBB-LL 16BB-	16cc-XLL 16ee-
16F	16f 16an
16C-X	16cc- 16ee-
16FF	16fJJ 16a
16c-X	8cc- 8ee-
16C-JJ	.
=47	=47
16BBB-LL 16BB-	16b-LL 16ddn
16F	16f 16an
16BB-	16b- 16dd
16FF	16fJJ 16a
16B-	8b- 8dd
16BB-JJ	.
=48	=48
16BBB-LL 16BB-	16anLL 16dd-X
16G-	16g- 16b-
16D-	16a 16dd-
16d-	16g- 16b-
16G-	16a 16dd-
16D-JJ	16g-JJ 16b-
=49	=49
16C-XLL	16anLL 16dd-
16F	16a-X 16ccn
16D-	16an 16dd-
16d-	16d- 16f
16F	16a 16dd-
16D-JJ	16fJJ 16a
=50	=50
16BB-LL	8f 8an
16G-	.
16D-	4g- 4b-
16d-	.
16G-	.
16D-JJ	.
=51	=51
16AA-LL	8d- 8f
16D-	.
16c-X	8cc-XL 8ee-
16DD-	.
16D-	32b-LL 32ee--
.	32b-- 32dd-
16d-JJ	32a- 32ccn
.	32a--JJJ 32cc-X
=52	=52
16GG-LL	4.g- 4.b-
16D-	.
16G-	.
16D-	.
16d-	.
16G-JJ	.
=53	=53
16GGnLL	16anLL 16dd-
16D-	16a-X 16cc
16d-	16an 16dd-
16D-	16d-JJ 16f
16d-	[8a [8dd-
16AnJJ	.
=54	=54
16FLL	16aLL] 16dd-]
16An	16d- 16f
16f	16an 16dd-
16A	16d-JJ 16f
16f	8a 8dd-
16FJJ	.
=55	=55
16GGnLL	16dd-LL 16ff
16F	16cc 16een
16f	16dd- 16ff
16F	16fJJ 16an
16f	[8dd- [8ff
16d-JJ	.
=56	=56
16AnLL	16dd-LL] 16ff]
16d-	16f 16an
16an	16dd- 16ff
16d-JJ	16f 16a
8a	16dd- 16ff
.	16fJJ 16a
=57	=57
16AA-XLL	16fLL 16an
16G-	16g-JJ 16b-
16d-	4dd- 4ff
16G-	.
16b-	.
16d-JJ	.
*clefG2	*
=58	=58
16d-LL 16f	16ddd-LL 16fff
16g- 16b-	16gg- 16bb-
16g- 16b-	16ddd- 16fff
16dd- 16ff	16gg- 16bb-
16d- 16f	16ddd- 16fff
16g-JJ 16b-	16gg-JJ 16bb-
*clefF4	*
=59	=59
16AA-LL	16fLL 16an
16G-	16g-JJ 16b-
16c	4cc 4een
16G-	.
16b-	.
16cJJ	.
*clefG2	*
=60	=60
16cLL 16en	16cccLL 16eeen
16g- 16b-	16gg- 16bb-
16g- 16b-	16ccc 16eee
16ccJJ 16een	16gg- 16bb-
8g- 8b-	16cc 16een
.	16cJJ 16en
*clefF4	*
=61	=61
16A-LL	16cLL 16en
16D-	16d- 16f
16c-X	16dn 16g-
16D-X	16e-X 16gn
16AA-	16en 16a-
16DD-JJ	16fJJ 16dd-X
=62	=62
16d-LL	16fLL 16an
16D-	16g- 16b-
16d-	16gn 16cc-X
16G-X	16a-X 16ccn
16GG-	16an 16dd-
16DD-JJ	16b-JJ 16gg-X
=63	=63
16e-LL	16gnLL 16bn
16A-	16a- 16cc
16g-X	16an 16dd-
16A-X	16b-X 16ddn
16AA-	16bn 16ee-
16DD-JJ	16ccnJJ 16aa-X
=64	=64
40%3AA-LL	16gg-LL 16bb-
.	16ff 16bb--
40%3D-	.
.	16ff-X 16aa-
40%3A-	.
.	16ee- 16ggn
40%3d-	.
.	16ee-- 16gg-X
40%3a-JJ	.
.	16dd-JJ 16ffn
=65	=65
16a-LL	16ccLL 16een
16c-X	16dd- 16ff
16D-X	16ddn 16gg-
16c-	16ee-X 16ggn
16AA-	16een 16aa-
16DD-JJ	16ffJJ 16ddd-X
=66	=66
16dd-LL	16ffLL 16aan
16B-	16gg- 16bb-
16g-X	16ggn 16ccc-X
16G-	16aa-X 16cccn
16D-	16aan 16ddd-
16DD-JJ	16bb-JJ 16ggg-X
*clefG2	*
=67	=67
16ee-LL	16ggnLL 16bbn
16g-X	16aa- 16ccc
*clefF4	*
16A-X	16aan 16ddd-
16c	16bb-X 16dddn
16AA-	16bbn 16eee-
16DD-JJ	16cccnJJ 16aaa-X
=68	=68
16AA-LL	16ggg-LL 16bbb-
16F	16fff 16bbb--
*clefG2	*
16d-	16fff-X 16aaa-
16a-	16eee- 16gggn
16dd-	16eee-- 16ggg-X
16aa-JJ	16ddd-JJ 16fffn
*clefF4	*
=69	=69
16DD-LL	16ccLL 16een
16D-	16dd- 16ff
16B-	16gg- 16bb-
16F	16dd- 16ff
16b-	16gg- 16bb-
16B-JJ	16dd-JJ 16ff
=70	=70
16EE-LL	16ddd-LL 16fff
16E-	16ccc-X 16eee-
16c-X	16bb- 16dddn
16G-	16ccc- 16eee-
16g-	16cc-XJJ 16ee-
16FFJJ	16r
=71	=71
16FLL	16anLL 16dd-
16f	16cc-X 16ee-
16e-	16ff 16aan
16FJ	16a 16dd-
8AnJ	16ff 16aa
.	16aaJJ 16ddd-
=72	=72
16GG-LL	16aa-LL 16ccc
16D-	16gg- 16bb-
16B-	16ff 16aan
16D-	16gg- 16bb-
16d-JJ	16g-JJ 16b-
16GGn	16r
=73	=73
16d-LL	16b--LL 16dd-
16F	16a- 16cc
16GGn	16b-- 16dd-
16d-	16dd- 16ff
16B--	16cc 16een
16D-JJ	16dd-JJ 16ff
=74	=74
16fLL	16ccLL 16een
16B--	16dd- 16ff
16D-	16ff 16bb--
16B--	16eeJ 16aa-
16f	8ffJ 8bb--
16GnJJ	.
*clefG2	*
=75	=75
16dd-LL	16bb--LL 16ddd-
16f	16aa- 16ccc
16Gn	16bb-- 16ddd-
16dd-	16ddd- 16fff
16b--	16ccc 16eeen
16d-JJ	16ddd-JJ 16fff
=76	=76
16ffLL	16cccLL 16eeen
16b--JJ	16ddd- 16fff
4d-	16fff 16bbb--
.	16bb-- 16ddd-
.	16dd- 16ff
.	16fJJ 16b--
*clefF4	*
=77	=77
16d-LL	16dd-LL 16ff
16F	16cc 16een
16AA-	16dd- 16ff
16An	16cc 16ee
16F	16dd- 16ff
16AA-XJJ	16fJJ 16an
=78	=78
16d-LL	16g-LL 16b-
16G-	16f 16an
16AA-	16g- 16b-
16B-	16dd- 16ff
16G-	16g- 16b-
16AA-JJ	16ccJJ 16een
=79	=79
16d-LL	16dd-LL 16ff
16F	16cc 16een
16AA-	16dd- 16ff
16An	16cc 16ee
16F	16dd- 16ff
16AA-XJJ	16fJJ 16an
=80	=80
16d-LL	16g-LL 16b-
16G-	16f 16an
16AA-	16g- 16b-
16B-	16dd- 16ff
16G-	16g- 16b-
16AA-JJ	16ccJJ 16een
=81	=81
16d-LL	16dd-LL 16ff
16F	16cc 16een
16AA-	16dd- 16ff
16c-X	16ccn 16ee
16F	16dd- 16ff
16AA-JJ	16dd-JJ 16ff
=82	=82
16B--LL	16ee--LL 16gg-
16G-	16dd- 16ff
16AA-	16ee-- 16gg-
16B-X	16g- 16b-X
16G-	16ee-- 16gg-
16AA-JJ	16g-JJ 16b-
=83	=83
16e-LL	16ee-XLL 16ggn
16Gn	16ddn 16ff#X
16AA-	16ee- 16gg
16d-X	16ddn 16ff#
16G	16ee- 16gg
16AA-JJ	16ee-JJ 16gg
=84	=84
40%3c-XLL	16ff-XLL 16aa-
.	16ee- 16ggn
40%3A-	.
.	16ff- 16aa-
40%3AA-	.
.	16a- 16ccn
40%3cn	.
.	16ff- 16aa-
40%3AA-JJ	.
.	16a-JJ 16cc
=85	=85
16AA-LL	16eenLL 16aa-
16G-X	16ee-X 16ggn
16c	16een 16aa-
16G-	16a-J 16cc
16en	[8eeJ [8aa-
16cJJ	.
*clefG2	*
=86	=86
16G-LL	16eeLL] 16aa-]
16en	16a- 16cc
16cc	16een 16aa-
16e	16a-J 16cc
16cc	[8eeJ [8aa-
16a-JJ	.
=87	=87
16cLL	16eeLL] 16aa-]
16a-	16cc 16een
16een	16aa- 16ccc
16a-	16ccJ 16ee
16ee	[8aa-J [8ccc
16ccJJ	.
=88	=88
16enLL	16aa-LL] 16ccc]
16ccJJ	16een 16aa-
4aa-	16ccc 16eeen
.	16ee 16aa-
.	16a- 16cc
.	16cJJ 16en
*clefF4	*
=89	=89
*^	*
16A-LL	8ryy	16cLL 16en
16D-	.	16d- 16f
16c-X	8ryy	16dn 16g-
16D-X	.	16e-X 16gn
16AA-	16A-LL	16en 16a-
16DDD-JJ	16DD-JJ	16fJJ 16dd-X
=90	=90	=90
16d-LL	8ryy	16fLL 16an
16D-	.	16g- 16b-
16d-	8ryy	16gn 16cc-X
16G-X	.	16a-X 16ccn
16GG-	16G-LL	16an 16dd-
16DDD-JJ	16DD-JJ	16b-JJ 16gg-X
=91	=91	=91
16e-LL	8ryy	16gnLL 16bn
16A-	.	16a- 16cc
16g-X	8ryy	16an 16dd-
16A-X	.	16b-X 16ddn
16AA-	16A-LL	16bn 16ee-
16DDD-JJ	16DD-JJ	16ccJJ 16aa-X
*v	*v	*
=92	=92
16r	16gg-LL 16bb-
8AA- 8D- 8A-	16ff 16bb--
.	16ff-X 16aa-
8D- 8A- 8d-	16ee- 16ggn
.	16ee-- 16gg-X
16A- 16d- 16a-	16dd-JJ 16ffn
=93	=93
*^	*
16a-LL	8ryy	16ccLL 16een
16c-X	.	16dd- 16ff
16D-X	8ryy	16ddn 16gg-
16c-	.	16ee-X 16ggn
16AA-	16A-LL	16een 16aa-
16DDD-JJ	16DD-JJ	16ffJJ 16ddd-X
=94	=94	=94
16dd-LL	8ryy	16ffLL 16aan
16B-	.	16gg- 16bb-
16g-X	8ryy	16ggn 16ccc-X
16G-	.	16aa-X 16cccn
16DD-	16D-LL	16aan 16ddd-
16DDD-JJ	16DD-JJ	16bb-JJ 16ggg-X
*clefG2	*	*
=95	=95	=95
16ee-LL	8ryy	16ggnLL 16bbn
16g-X	.	16aa- 16ccc
*clefF4	*	*
16A-X	8ryy	16aan 16ddd-
16c	.	16bb-X 16dddn
16AA-	16A-LL	16bbn 16eee-
16DDD-JJ	16DD-JJ	16cccJJ 16aaa-X
*v	*v	*
=96	=96
16r	16ggg-LL 16bbb-
8AA- 8D- 8A-	16fff 16bbb--
.	16fff-X 16aaa-
*clefG2	*
8A- 8d- 8a-	16eee- 16gggn
.	16eee-- 16ggg-X
16a- 16dd- 16aa-	16ddd-JJ 16fffn
*clefF4	*
=97	=97
*^	*
16e-LL	8ryy	16gnLL 16bn
16A-	.	16a- 16cc
16g-X	8ryy	16an 16dd-
16A-X	.	16b-X 16ddn
16AA-	16A-LL	16bn 16ee-
16DDD-JJ	16DD-JJ	16ccJJ 16aa-X
*v	*v	*
=98	=98
16r	16gg-LL 16bb-
8AA- 8D- 8A-	16ff 16bb--
.	16ff-X 16aa-
8D- 8A- 8d-	16ee- 16ggn
.	16ee-- 16gg-X
16A- 16d- 16a-	16dd-JJ 16ffn
*	*clefF4
=99	=99
*^	*
16E-LL	8ryy	16GnLL 16Bn
16AA-	.	16A- 16c
16G-X	8ryy	16An 16d-
16AA-X	.	16B-X 16dn
16AA-	16A-LL	16Bn 16e-
16DDD-JJ	16DD-JJ	16cJJ 16a-X
*v	*v	*
*	*clefG2
=100	=100
16r	16g-LL 16b-
8AA-	16f 16b--
.	16f-X 16a-
8D-	16e- 16gn
.	16e-- 16g-X
16A-	16d-JJ 16fn
*	*clefF4
=101	=101
4.r	16G-LL 16B-
.	16F 16B--
.	16F-X 16A-
.	16E- 16Gn
.	16E-- 16G-X
.	16D-JJ 16Fn
*	*clefG2
=102	=102
4.r	16g-LL 16b-
.	16f 16b--
.	16f-X 16a-
.	16e- 16gn
.	16e-- 16g-X
.	16d-JJ 16fn
=103	=103
4.r	16gg-LL 16bb-
.	16ff 16bb--
.	16ff-X 16aa-
.	16ee- 16ggn
.	16ee-- 16gg-X
.	16dd-JJ 16ffn
=104	=104
16DD-LL 16D-	16ee--LL 16gg-
16B--	16b-- 16dd-
16E--	16ee-- 16gg-
16BB--	16b--J 16dd-
16e--	8ee--J 8gg-
16E--JJ	.
=105	=105
16DD-LL 16D-	16ee--LL 16gg-
16A-	16a- 16cc
16E--	16ee-- 16gg-
16AA-	16a-J 16cc
16e--	8ee--J 8gg-
16E--JJ	.
=106	=106
16DD-LL 16D-	16dd-LL 16ff
16A-	16a- 16cc
16D-	16dd- 16ff
16AA-	16a-J 16cc
16d-	8dd-J 8ff
16D-JJ	.
=107	=107
16DD-LL 16D-	16dd-LL 16ff
16A--	16a-- 16cc-X
16D-	16dd- 16ff
16AA--	16a--J 16cc-
16d-	8dd-J 8ff
16D-JJ	.
=108	=108
16DD-LL 16D-	16dd-LL 16ff
16G-	16g- 16b-
16D-	16dd- 16ff
16GG-	16g-J 16b-
16d-	8dd-J 8ff
16D-JJ	.
=109	=109
16DD-LL 16D-	16ccLL 16een
16G-	16g- 16b-
16C	16cc 16ee
16GG-	16g-J 16b-
16c	8ccJ 8ee
16CJJ	.
=110	=110
16DDD-LL 16DD-	16dd-LL 16ff
16A-	16a- 16cc
16D-	16dd- 16ff
16AA-	16a-J 16cc
16d-	8dd-J 8ff
16D-JJ	.
=111	=111
16DDD-LL 16DD-	16d-LL 16f
16D-	16A-- 16c-X
16AA--	16d- 16f
16DD-	16A--J 16c-
16A--	8d-J 8f
16AA--JJ	.
=112	=112
16DDD-LL 16DD-	16d-LL 16f
16D-	16G- 16B-
16GG-	16d- 16f
16DD-	16G-J 16B-
16G-	8d-J 8f
16GG-JJ	.
=113	=113
16DDD-LL 16DD-	16cLL 16en
16C	16G- 16B-
16GG-	16c 16e
16DD-	16G-J 16B-
16G-	8cJ 8e
16GG-JJ	.
=114	=114
8.DD- 8.D-	16d-LL 16f
.	16A- 16c
.	16d- 16f
8.AAA- 8.AA-	16A- 16c
.	16d- 16f
.	16A-JJ 16c
=115	=115
8.DD- 8.D-	16d-LL 16f
.	16A-- 16c-X
.	16d- 16f
8.AAA-- 8.AA--	16A-- 16c-
.	16d- 16f
.	16A--JJ 16c-
=116	=116
8.DD- 8.D-	16d-LL 16f
.	16G- 16B-
.	16d- 16f
8.GGG- 8.GG-	16G- 16B-
.	16d- 16f
.	16G-JJ 16B-
=117	=117
8.CC 8.C	16cLL 16en
.	16G- 16B-
.	16c 16e
8.GGG- 8.GG-	16G- 16B-
.	16c 16e
.	16G-JJ 16B-
=118	=118
8DDD- 8DD-	16FLL 16A- 16d- 16f
.	16c
16c-XLL 16e-	16e- 16gn
16B- 16dn	16en 16a-
16An 16d-X	16f 16an
16A-XJJ 16cn	16g-XJJ 16b-
=119	=119
8D- 8A-	16fLL 16dd-
.	16cc
*clefG2	*
16cc-XLL 16ee-	16ee- 16ggn
16b- 16ddn	16een 16aa-X
16an 16dd-X	16ff 16aan
16a-XJJ 16ccn	16gg-XJJ 16bb-
=120	=120
8d- 8a-	16ffLL 16ddd-
.	16ccc
16ccc-XLL 16eee-	16eee- 16gggn
16bb- 16dddn	16eeen 16aaa-
16aan 16ddd-X	16fff 16aaan
16aa-XJJ 16cccn	16ggg-XJJ 16bbb-
=121	=121
8.dd- 8.aa-	8.fff 8.dddd-
*clefF4	*
8.D- 8.A- 8.f	8.a- 8.dd- 8.aa-
=122	=122
8.DD- 8.AA- 8.D-	8.F 8.A- 8.d-
16r	16r
8r	8r
==	==
*-	*-
!!!system-decoration: {(*)}
!!!ENC: Bryan Jacob Bell
!!!END: November 2021 to April 2022
!!!PED: Konstantin Igumnov and Yakov Milstein
!!!PTL: A.N. Skryabin: Polnoe sobranie sochinenii dlia fortepiano (Muzgiz)
